aliba_games/img/token-Icon.svg

<svg width="32" height="32" viewBox="0 0 32 32" fill="none" xmlns="http://www.w3.org/2000/svg">
<path d="M16 32C24.8366 32 32 24.8366 32 16C32 7.16344 24.8366 0 16 0C7.16344 0 0 7.16344 0 16C0 24.8366 7.16344 32 16 32Z" fill="#B159D7"/>
<path d="M16 29.0037C23.1818 29.0037 29.0038 23.1818 29.0038 16C29.0038 8.81822 23.1818 2.99625 16 2.99625C8.81825 2.99625 2.99628 8.81822 2.99628 16C2.99628 23.1818 8.81825 29.0037 16 29.0037Z" fill="#A73DD4"/>
<path d="M20.1995 12.1766V8.47711C20.1995 8.33905 20.0876 8.22711 19.9495 8.22711H16H12.0505C11.9124 8.22711 11.8005 8.33905 11.8005 8.47711V12.1766C11.8005 12.3147 11.6886 12.4266 11.5505 12.4266H9.95074C9.81268 12.4266 9.70074 12.5385 9.70074 12.6766V16.6261V18.4759C9.70074 18.6139 9.81268 18.7259 9.95074 18.7259H11.5505C11.6886 18.7259 11.8005 18.8378 11.8005 18.9759V20.5756C11.8005 20.7137 11.9124 20.8256 12.0505 20.8256H13.9002H18.0997H19.9495C20.0876 20.8256 20.1995 20.7137 20.1995 20.5756V18.9759C20.1995 18.8378 20.3114 18.7259 20.4495 18.7259H22.0492C22.1873 18.7259 22.2992 18.6139 22.2992 18.4759V16.6261V12.6766C22.2992 12.5385 22.1873 12.4266 22.0492 12.4266H20.4495C20.3114 12.4266 20.1995 12.3147 20.1995 12.1766Z" fill="#DB85FF"/>
<path d="M10.2124 22.2478H8.61267C8.47461 22.2478 8.36267 22.1359 8.36267 21.9978V20.398C8.36267 20.26 8.47461 20.148 8.61267 20.148H10.2124C10.3505 20.148 10.4624 20.26 10.4624 20.398V21.9978C10.4624 22.1359 10.3505 22.2478 10.2124 22.2478Z" fill="#DB85FF"/>
<path d="M23.3873 22.2478H21.7875C21.6495 22.2478 21.5375 22.1359 21.5375 21.9978V20.398C21.5375 20.26 21.6495 20.148 21.7875 20.148H23.3873C23.5253 20.148 23.6373 20.26 23.6373 20.398V21.9978C23.6373 22.1359 23.5253 22.2478 23.3873 22.2478Z" fill="#DB85FF"/>
<path d="M13.9815 24.3929H12.3817C12.2437 24.3929 12.1317 24.281 12.1317 24.1429V22.5432C12.1317 22.4051 12.2437 22.2932 12.3817 22.2932H13.9815C14.1195 22.2932 14.2315 22.4051 14.2315 22.5432V24.1429C14.2315 24.281 14.1195 24.3929 13.9815 24.3929Z" fill="#DB85FF"/>
<path d="M19.8464 24.3929H18.2466C18.1086 24.3929 17.9966 24.281 17.9966 24.1429V22.5432C17.9966 22.4051 18.1086 22.2932 18.2466 22.2932H19.8464C19.9845 22.2932 20.0964 22.4051 20.0964 22.5432V24.1429C20.0964 24.281 19.9845 24.3929 19.8464 24.3929Z" fill="#DB85FF"/>
<path d="M14.4019 15.6276H12.8022C12.6641 15.6276 12.5522 15.5156 12.5522 15.3776V13.7778C12.5522 13.6397 12.6641 13.5278 12.8022 13.5278H14.4019C14.54 13.5278 14.6519 13.6397 14.6519 13.7778V15.3776C14.6519 15.5156 14.54 15.6276 14.4019 15.6276Z" fill="#A73DD4"/>
<path d="M19.1978 15.6276H17.5981C17.46 15.6276 17.3481 15.5156 17.3481 15.3776V13.7778C17.3481 13.6397 17.46 13.5278 17.5981 13.5278H19.1978C19.3359 13.5278 19.4478 13.6397 19.4478 13.7778V15.3776C19.4478 15.5156 19.3359 15.6276 19.1978 15.6276Z" fill="#A73DD4"/>
</svg>

<svg width="32" height="32" fill="none" xmlns="http://www.w3.org/2000/svg"><path d="M16 32c8.837 0 16-7.163 16-16S24.837 0 16 0 0 7.163 0 16s7.163 16 16 16z" fill="#B159D7"/><path d="M16 29.004c7.182 0 13.004-5.822 13.004-13.004 0-7.182-5.822-13.004-13.004-13.004C8.818 2.996 2.996 8.818 2.996 16c0 7.182 5.822 13.004 13.004 13.004z" fill="#A73DD4"/><path d="M20.2 12.177v-3.7a.25.25 0 0 0-.25-.25h-7.9a.25.25 0 0 0-.25.25v3.7a.25.25 0 0 1-.25.25h-1.6a.25.25 0 0 0-.25.25v5.799c0 .138.113.25.25.25h1.6a.25.25 0 0 1 .25.25v1.6c0 .138.112.25.25.25h7.9a.25.25 0 0 0 .25-.25v-1.6a.25.25 0 0 1 .25-.25h1.6a.25.25 0 0 0 .25-.25V12.676a.25.25 0 0 0-.25-.25h-1.6a.25.25 0 0 1-.25-.25zM10.212 22.248h-1.6a.25.25 0 0 1-.25-.25v-1.6a.25.25 0 0 1 .25-.25h1.6a.25.25 0 0 1 .25.25v1.6a.25.25 0 0 1-.25.25zM23.387 22.248h-1.6a.25.25 0 0 1-.25-.25v-1.6a.25.25 0 0 1 .25-.25h1.6a.25.25 0 0 1 .25.25v1.6a.25.25 0 0 1-.25.25zM13.982 24.393h-1.6a.25.25 0 0 1-.25-.25v-1.6a.25.25 0 0 1 .25-.25h1.6a.25.25 0 0 1 .25.25v1.6a.25.25 0 0 1-.25.25zM19.846 24.393h-1.6a.25.25 0 0 1-.25-.25v-1.6a.25.25 0 0 1 .25-.25h1.6a.25.25 0 0 1 .25.25v1.6a.25.25 0 0 1-.25.25z" fill="#DB85FF"/><path d="M14.402 15.628h-1.6a.25.25 0 0 1-.25-.25v-1.6a.25.25 0 0 1 .25-.25h1.6a.25.25 0 0 1 .25.25v1.6a.25.25 0 0 1-.25.25zM19.198 15.628h-1.6a.25.25 0 0 1-.25-.25v-1.6a.25.25 0 0 1 .25-.25h1.6a.25.25 0 0 1 .25.25v1.6a.25.25 0 0 1-.25.25z" fill="#A73DD4"/></svg>
